X: 31
T:The Dawning of the Day
M:4/4
L:1/8
Q:120
C:Traditional
K:D
DE |F2 F2 F2 EF |A2 A2 B2 AF |D2 E2 D2 D2 |
D6 FA ||B3 A B2 d2 |F3 E D2 F2 |A2 F2 d2 F2 |
E6 DE |F2 F2 F2 EF |A2 A2 B2 AF |D2 E2 D2 D2 |
D6 z2 ||
%  ABC2Win Version 2.1 26/06/2002
